Simply-Cyan-Circles/scalable/apps/babe.svg

<svg xmlns="http://www.w3.org/2000/svg" width="48" height="48" viewBox="0 0 12.7 12.7"><path d="M6.34.07a6.29 6.29 0 0 0-6.29 6.3 6.29 6.29 0 0 0 6.3 6.28 6.29 6.29 0 0 0 6.28-6.29A6.29 6.29 0 0 0 6.34.07zm-.01.94a5.4 5.4 0 0 1 5.4 5.4 5.4 5.4 0 0 1-5.4 5.41 5.4 5.4 0 0 1-5.41-5.4A5.4 5.4 0 0 1 6.32 1zM4.1 2.74v1.11h1.24V2.74zm3.24 0v1.11h1.24V2.74zm-4.99.74v1.11h1.25V3.48zm6.73 0v1.11h1.25V3.48zm-3.36.74v1.11h1.24V4.22zm-1.62.37V5.7h1.24V4.6zm3.24 0V5.7h1.24V4.6zm-4.99.74v1.11h1.25v-1.1zm6.73 0v1.11h1.25v-1.1zm-3.36.74v1.11h1.24v-1.1zm-1.62.37v1.11h1.24v-1.1zm3.24 0v1.11h1.24v-1.1zm-4.99.74V8.3h1.25V7.2zm6.73 0V8.3h1.25V7.2zm-3.36.74v1.11h1.24v-1.1zM4.1 8.3V9.4h1.24V8.3zm3.24 0V9.4h1.24V8.3zM5.73 9.78v1.1h1.24v-1.1z" fill="#5beedc"/></svg>

<?xml version="1.0" encoding="UTF-8" standalone="no"?>
<svg
   xmlns:dc="http://purl.org/dc/elements/1.1/"
   xmlns:cc="http://creativecommons.org/ns#"
   xmlns:rdf="http://www.w3.org/1999/02/22-rdf-syntax-ns#"
   xmlns:svg="http://www.w3.org/2000/svg"
   xmlns="http://www.w3.org/2000/svg"
   xmlns:sodipodi="http://sodipodi.sourceforge.net/DTD/sodipodi-0.dtd"
   xmlns:inkscape="http://www.inkscape.org/namespaces/inkscape"
   width="48"
   height="48"
   viewBox="0 0 12.7 12.7"
   version="1.1"
   id="svg4"
   sodipodi:docname="babe.svg"
   inkscape:version="0.92.4 (5da689c313, 2019-01-14)">
  <metadata
     id="metadata10">
    <rdf:RDF>
      <cc:Work
         rdf:about="">
        <dc:format>image/svg+xml</dc:format>
        <dc:type
           rdf:resource="http://purl.org/dc/dcmitype/StillImage" />
        <dc:title></dc:title>
      </cc:Work>
    </rdf:RDF>
  </metadata>
  <defs
     id="defs8" />
  <sodipodi:namedview
     pagecolor="#ffffff"
     bordercolor="#666666"
     borderopacity="1"
     objecttolerance="10"
     gridtolerance="10"
     guidetolerance="10"
     inkscape:pageopacity="0"
     inkscape:pageshadow="2"
     inkscape:window-width="1087"
     inkscape:window-height="480"
     id="namedview6"
     showgrid="false"
     inkscape:zoom="4.9166667"
     inkscape:cx="2.1355932"
     inkscape:cy="24"
     inkscape:window-x="0"
     inkscape:window-y="25"
     inkscape:window-maximized="0"
     inkscape:current-layer="svg4" />
  <path
     d="M 6.34,0.07 A 6.29,6.29 0 0 0 0.05,6.37 6.29,6.29 0 0 0 6.35,12.65 6.29,6.29 0 0 0 12.63,6.36 6.29,6.29 0 0 0 6.34,0.07 Z M 6.33,1.01 a 5.4,5.4 0 0 1 5.4,5.4 5.4,5.4 0 0 1 -5.4,5.41 A 5.4,5.4 0 0 1 0.92,6.42 5.4,5.4 0 0 1 6.32,1 Z M 4.1,2.74 V 3.85 H 5.34 V 2.74 Z m 3.24,0 V 3.85 H 8.58 V 2.74 Z M 2.35,3.48 V 4.59 H 3.6 V 3.48 Z m 6.73,0 v 1.11 h 1.25 V 3.48 Z M 5.72,4.22 V 5.33 H 6.96 V 4.22 Z M 4.1,4.59 V 5.7 H 5.34 V 4.6 Z m 3.24,0 V 5.7 H 8.58 V 4.6 Z M 2.35,5.33 V 6.44 H 3.6 v -1.1 z m 6.73,0 v 1.11 h 1.25 V 5.34 Z M 5.72,6.07 V 7.18 H 6.96 V 6.08 Z M 4.1,6.44 v 1.11 h 1.24 v -1.1 z m 3.24,0 V 7.55 H 8.58 V 6.45 Z M 2.35,7.18 V 8.3 H 3.6 V 7.2 Z m 6.73,0 V 8.3 h 1.25 V 7.2 Z M 5.72,7.92 V 9.03 H 6.96 V 7.93 Z M 4.1,8.3 V 9.4 H 5.34 V 8.3 Z m 3.24,0 V 9.4 H 8.58 V 8.3 Z M 5.73,9.78 v 1.1 h 1.24 v -1.1 z"
     id="path2"
     inkscape:connector-curvature="0"
     style="fill:#5beedc" />
</svg>
